icons/tokens/0x7Fc66500c84A76Ad7e9c93437bFc5Ac33E2DDaE9/logo.svg

<svg xmlns="http://www.w3.org/2000/svg" width="32" height="32" viewBox="0 0 32 32">
  <defs>
    <linearGradient id="aave-a" x1="90.7%" x2="16.3%" y1="22.7%" y2="85.3%">
      <stop offset="0%" stop-color="#B6509E"/>
      <stop offset="100%" stop-color="#2EBAC6"/>
    </linearGradient>
  </defs>
  <g fill="none">
    <circle cx="16" cy="16" r="16" fill="url(#aave-a)"/>
    <path fill="#FFF" d="M23.0014845,22.3744742 L17.5898144,9.29575258 C17.284,8.61991753 16.8319175,8.28865979 16.233567,8.28865979 L15.7549278,8.28865979 C15.1565773,8.28865979 14.7044948,8.61991753 14.3986804,9.29575258 L12.0453608,14.9938144 L10.2634639,14.9938144 C9.72953716,14.9958791 9.29670717,15.427238 9.29282474,15.9611546 L9.29282474,15.9743918 C9.29670717,16.5083084 9.72953716,16.9396673 10.2634639,16.941732 L11.2206186,16.941732 L8.97369072,22.3744742 C8.93119603,22.4936675 8.90873408,22.6190755 8.90721649,22.7456082 C8.90721649,23.0503918 9.00028866,23.2889072 9.17315464,23.474433 C9.34602062,23.6599588 9.58531959,23.7526186 9.89117526,23.7526186 C10.0919782,23.7498742 10.287016,23.6850489 10.4494845,23.5670103 C10.6223505,23.4477526 10.7420206,23.2755052 10.8350928,23.0767423 L13.3082474,16.9415258 L15.0235052,16.9415258 C15.5574319,16.9394611 15.9902619,16.5081022 15.9941443,15.9741856 L15.9941443,15.9476701 C15.9902619,15.4137535 15.5574319,14.9823946 15.0235052,14.9803299 L14.1061443,14.9803299 L15.9942268,10.2762887 L21.14,23.0767835 C21.2330722,23.2755464 21.3527423,23.4479175 21.5256082,23.5670515 C21.6881226,23.6851224 21.883223,23.7499494 22.0840825,23.7526186 C22.3898969,23.7526186 22.6292371,23.6598625 22.8021031,23.4743505 C22.9749691,23.2887835 23.0680412,23.0503093 23.0680412,22.7455258 C23.0730427,22.6184777 23.0503315,22.4918633 23.0014845,22.3744742 L23.0014845,22.3744742 Z"/>
  </g>
</svg>

<svg viewBox="0 0 32 32"><defs><linearGradient id="a" x1="90.7%" x2="16.3%" y1="22.7%" y2="85.3%"><stop offset="0%" stop-color="#B6509E"/><stop offset="100%" stop-color="#2EBAC6"/></linearGradient></defs><g fill="none"><circle cx="16" cy="16" r="16" fill="url(#a)"/><path fill="#FFF" d="M23.001 22.374L17.59 9.296c-.306-.676-.758-1.007-1.356-1.007h-.48c-.597 0-1.05.33-1.355 1.007l-2.354 5.698h-1.782a.974.974 0 00-.97.967v.013a.974.974 0 00.97.968h.958l-2.247 5.432c-.043.12-.065.245-.067.372 0 .304.093.543.266.728.173.186.412.279.718.279a.972.972 0 00.558-.186 1.18 1.18 0 00.386-.49l2.473-6.135h1.716a.974.974 0 00.97-.968v-.026a.974.974 0 00-.97-.968h-.918l1.888-4.704 5.146 12.8c.093.2.213.372.386.491a.972.972 0 00.558.186c.306 0 .545-.093.718-.279.173-.185.266-.424.266-.728a.876.876 0 00-.067-.372z"/></g></svg>
